apps/scalable/flacon.svg

<svg xmlns="http://www.w3.org/2000/svg" style="isolation:isolate" width="256" height="256"><defs><filter id="a" width="270.648" height="254.338" x="-7.32" y="2.95" filterUnits="userSpaceOnUse"><feGaussianBlur xmlns="http://www.w3.org/2000/svg" in="SourceGraphic" stdDeviation="4.294"/><feOffset xmlns="http://www.w3.org/2000/svg" dy="4" result="pf_100_offsetBlur"/><feFlood xmlns="http://www.w3.org/2000/svg" flood-opacity=".4"/><feComposite xmlns="http://www.w3.org/2000/svg" in2="pf_100_offsetBlur" operator="in" result="pf_100_dropShadow"/><feBlend xmlns="http://www.w3.org/2000/svg" in="SourceGraphic" in2="pf_100_dropShadow"/></filter></defs><path fill="#4D4D4D" d="M165.685 11.947c74.055 0 84.639 10.557 84.639 84.544v59.251c0 73.986-10.584 84.543-84.639 84.543h-75.37c-74.055 0-84.639-10.557-84.639-84.543V96.491c0-73.987 10.584-84.544 84.639-84.544h75.37z" filter="url(#a)"/><path fill="#A2BCFE" d="M119.393 189.321c-18.129 0-34.569-7.375-46.477-19.283-11.907-11.907-19.282-28.347-19.282-46.477 0-36.261 29.5-65.761 65.759-65.761 36.261 0 65.762 29.5 65.762 65.761 0 36.26-29.501 65.76-65.762 65.76z"/><circle fill="#333" r="1" transform="translate(119.394 123.561) scale(55.87)" vector-effect="non-scaling-stroke"/><path fill="#2B898F" d="M107.073 117.519l-9.837-45.253a55.69 55.69 0 0 1 22.159-4.577 55.75 55.75 0 0 1 21.731 4.383l-9.308 42.819-24.745 2.628zM160.709 161.17l-34.886-31.569 3.286-3.909 40.807 21.737a55.984 55.984 0 0 1-9.207 13.741z"/><path fill="#2B898F" d="M107.073 129.601l-9.837 45.254a55.673 55.673 0 0 0 22.159 4.576c7.708 0 15.05-1.561 21.731-4.383l-9.308-42.818-24.745-2.629z"/><path fill="#2B898F" d="M119.393 149.765c-14.449 0-26.204-11.755-26.204-26.204 0-14.45 11.755-26.205 26.204-26.205 14.452 0 26.206 11.755 26.206 26.205 0 14.448-11.754 26.204-26.206 26.204z"/><path fill="#FB7C38" d="M119.393 146.63c-12.72 0-23.069-10.349-23.069-23.07s10.348-23.07 23.069-23.07c12.722 0 23.072 10.348 23.072 23.07 0 12.721-10.349 23.07-23.072 23.07z"/><path fill="#333" d="M119.395 134.78c-6.187 0-11.22-5.034-11.22-11.219 0-6.187 5.033-11.22 11.22-11.22 6.185 0 11.218 5.033 11.218 11.22 0 6.185-5.033 11.219-11.218 11.219z"/><path fill="#FFF" d="M119.395 126.29a2.732 2.732 0 0 1-2.73-2.729 2.734 2.734 0 0 1 2.73-2.731 2.733 2.733 0 0 1 2.728 2.731 2.732 2.732 0 0 1-2.728 2.729z"/><path fill="#A2BCFE" d="M80.33 167.658l-1.556-1.395-1.52-1.434-.036.039-10.128-9.078-3.596 16.26 3.86 3.549 3.077 2.828 3.848 3.538 15.906-4.943-9.89-9.326.035-.038z"/><path fill="#A2BCFE" fill-rule="evenodd" d="M189.86 207.65c-2.08 0-4.08-.83-5.55-2.3a7.858 7.858 0 0 1-2.3-5.55c0-2.08.83-4.08 2.3-5.55a7.848 7.848 0 0 1 5.55-2.29c2.08 0 4.08.82 5.55 2.29a7.858 7.858 0 0 1 2.3 5.55c0 2.08-.83 4.08-2.3 5.55a7.858 7.858 0 0 1-5.55 2.3zm0-1c-1.82 0-3.56-.72-4.84-2.01a6.809 6.809 0 0 1-2.01-4.84c0-1.81.72-3.56 2.01-4.84 1.28-1.28 3.02-2 4.84-2 1.82 0 3.56.72 4.84 2a6.826 6.826 0 0 1 2.01 4.84c0 1.82-.72 3.56-2.01 4.84a6.809 6.809 0 0 1-4.84 2.01z"/><path fill="#EAB305" d="M189.86 205.061a5.264 5.264 0 0 1-5.258-5.258 5.265 5.265 0 0 1 5.258-5.258 5.265 5.265 0 0 1 5.258 5.258 5.264 5.264 0 0 1-5.258 5.258z"/><path fill="#A2BCFE" fill-rule="evenodd" d="M167.92 207.65c-2.08 0-4.08-.83-5.55-2.3a7.858 7.858 0 0 1-2.3-5.55c0-2.08.83-4.08 2.3-5.55a7.848 7.848 0 0 1 5.55-2.29c2.08 0 4.08.82 5.55 2.29a7.848 7.848 0 0 1 2.29 5.55c0 2.08-.82 4.08-2.29 5.55a7.858 7.858 0 0 1-5.55 2.3zm0-1c-1.82 0-3.56-.72-4.84-2.01a6.809 6.809 0 0 1-2.01-4.84c0-1.81.72-3.56 2.01-4.84a6.859 6.859 0 0 1 9.68 0 6.859 6.859 0 0 1 0 9.68 6.826 6.826 0 0 1-4.84 2.01z"/><path fill="#FB7C38" d="M167.917 205.061a5.264 5.264 0 0 1-5.258-5.258 5.265 5.265 0 0 1 5.258-5.258 5.265 5.265 0 0 1 5.258 5.258 5.264 5.264 0 0 1-5.258 5.258z"/><path fill="#A2BCFE" fill-rule="evenodd" d="M145.97 207.65c-2.08 0-4.07-.83-5.54-2.3a7.816 7.816 0 0 1-2.3-5.55c0-2.08.82-4.08 2.3-5.55a7.825 7.825 0 0 1 5.54-2.29c2.08 0 4.08.82 5.55 2.29a7.858 7.858 0 0 1 2.3 5.55c0 2.08-.83 4.08-2.3 5.55a7.84 7.84 0 0 1-5.55 2.3zm0-1a6.844 6.844 0 0 1-6.84-6.85c0-1.81.72-3.56 2-4.84 1.29-1.28 3.03-2 4.84-2 1.82 0 3.56.72 4.85 2a6.859 6.859 0 0 1 0 9.68 6.85 6.85 0 0 1-4.85 2.01z"/><path fill="#2B898F" d="M145.975 205.061a5.264 5.264 0 0 1-5.258-5.258 5.264 5.264 0 0 1 5.258-5.258 5.265 5.265 0 0 1 5.257 5.258 5.264 5.264 0 0 1-5.257 5.258z"/><circle fill="#A2BCFE" r="1" transform="translate(188.815 62.4) scale(13.551)" vector-effect="non-scaling-stroke"/><circle fill="#EAB305" r="1" transform="translate(188.815 62.4) scale(7.348)" vector-effect="non-scaling-stroke"/><path fill="#F2F2F2" fill-rule="evenodd" d="M179.9 62.4c0-2.36.94-4.63 2.61-6.3a8.923 8.923 0 0 1 12.61 0 8.917 8.917 0 0 1 2.61 6.3c0 2.36-.94 4.63-2.61 6.3a8.875 8.875 0 0 1-6.3 2.61c-2.37 0-4.64-.93-6.31-2.61a8.917 8.917 0 0 1-2.61-6.3zm3.14 0c0-1.53.6-3 1.69-4.09a5.781 5.781 0 0 1 8.17 0 5.784 5.784 0 0 1 1.7 4.09 5.784 5.784 0 0 1-9.87 4.09 5.774 5.774 0 0 1-1.69-4.09z"/><path fill="#EAB305" d="M187.248 62.4l-4.198 34.834c.088-.733.787-1.322-.183-.374l-2.574 2.515-8.164 7.974-12.668 12.373c-1.448 1.414.77 3.629 2.217 2.217l12.667-12.374 8.164-7.974c1.07-1.045 3.464-2.607 3.661-4.235l4.213-34.956c.241-2.004-2.896-1.98-3.135 0z"/><path fill="#EAB305" d="M163.818 117.988a3.144 3.144 0 0 1-.247 4.426l-.779.696a3.142 3.142 0 0 1-4.426-.248 3.144 3.144 0 0 1 .248-4.426l.779-.695a3.143 3.143 0 0 1 4.425.247z"/><g opacity=".4"><linearGradient id="b" x1=".517" x2=".517" y2="1"><stop offset="0%" stop-color="#fff"/><stop offset="12.5%" stop-opacity=".098" stop-color="#fff"/><stop offset="92.5%" stop-opacity=".098"/><stop offset="100%" stop-opacity=".498"/></linearGradient><path fill="none" stroke="url(#b)" stroke-linecap="round" stroke-linejoin="round" stroke-width="4.077" d="M165.685 11.947c74.055 0 84.639 10.557 84.639 84.544v59.251c0 73.986-10.584 84.543-84.639 84.543h-75.37c-74.055 0-84.639-10.557-84.639-84.543V96.491c0-73.987 10.584-84.544 84.639-84.544h75.37z" vector-effect="non-scaling-stroke"/></g></svg>

<svg xmlns="http://www.w3.org/2000/svg" style="isolation:isolate" width="256" height="256" viewBox="0 0 256 256">
 <defs>
  <filter id="LMPSlzXVk5sS8IzpPFNP7Ht4Yhvk0xkj" width="270.648" height="254.338" x="-7.32" y="2.95" filterUnits="userSpaceOnUse">
   <feGaussianBlur xmlns="http://www.w3.org/2000/svg" in="SourceGraphic" stdDeviation="4.294"/>
   <feOffset xmlns="http://www.w3.org/2000/svg" dx="0" dy="4" result="pf_100_offsetBlur"/>
   <feFlood xmlns="http://www.w3.org/2000/svg" flood-opacity=".4"/>
   <feComposite xmlns="http://www.w3.org/2000/svg" in2="pf_100_offsetBlur" operator="in" result="pf_100_dropShadow"/>
   <feBlend xmlns="http://www.w3.org/2000/svg" in="SourceGraphic" in2="pf_100_dropShadow" mode="normal"/>
  </filter>
 </defs>
 <g filter="url(#LMPSlzXVk5sS8IzpPFNP7Ht4Yhvk0xkj)">
  <path fill="#4D4D4D" d="M 165.685 11.947 C 239.74 11.947 250.324 22.504 250.324 96.491 L 250.324 155.742 C 250.324 229.728 239.74 240.285 165.685 240.285 L 90.315 240.285 C 16.26 240.285 5.676 229.728 5.676 155.742 L 5.676 96.491 C 5.676 22.504 16.26 11.947 90.315 11.947 L 165.685 11.947 Z"/>
 </g>
 <g>
  <path fill="#A2BCFE" d="M 119.393 189.321 C 101.264 189.321 84.824 181.946 72.916 170.038 C 61.009 158.131 53.634 141.691 53.634 123.561 C 53.634 87.3 83.134 57.8 119.393 57.8 C 155.654 57.8 185.155 87.3 185.155 123.561 C 185.155 159.821 155.654 189.321 119.393 189.321 Z"/>
  <circle fill="#333333" cx="0" cy="0" r="1" transform="matrix(55.87,0,0,55.87,119.394,123.561)" vector-effect="non-scaling-stroke"/>
  <path fill="#2B898F" d="M 107.073 117.519 L 97.236 72.266 C 104.03 69.328 111.52 67.689 119.395 67.689 C 127.103 67.689 134.445 69.252 141.126 72.072 L 131.818 114.891 L 107.073 117.519 Z"/>
  <path fill="#2B898F" d="M 160.709 161.17 L 125.823 129.601 L 129.109 125.692 L 169.916 147.429 C 167.53 152.467 164.42 157.097 160.709 161.17 L 160.709 161.17 Z"/>
  <path fill="#2B898F" d="M 107.073 129.601 L 97.236 174.855 C 104.03 177.794 111.52 179.431 119.395 179.431 C 127.103 179.431 134.445 177.87 141.126 175.048 L 131.818 132.23 L 107.073 129.601 Z"/>
  <path fill="#2B898F" d="M 119.393 149.765 C 104.944 149.765 93.189 138.01 93.189 123.561 C 93.189 109.111 104.944 97.356 119.393 97.356 C 133.845 97.356 145.599 109.111 145.599 123.561 C 145.599 138.009 133.845 149.765 119.393 149.765 Z"/>
  <path fill="#FB7C38" d="M 119.393 146.63 C 106.673 146.63 96.324 136.281 96.324 123.56 C 96.324 110.839 106.672 100.49 119.393 100.49 C 132.115 100.49 142.465 110.838 142.465 123.56 C 142.465 136.281 132.116 146.63 119.393 146.63 Z"/>
  <path fill="#333333" d="M 119.395 134.78 C 113.208 134.78 108.175 129.746 108.175 123.561 C 108.175 117.374 113.208 112.341 119.395 112.341 C 125.58 112.341 130.613 117.374 130.613 123.561 C 130.613 129.746 125.58 134.78 119.395 134.78 Z"/>
  <path fill="#FFFFFF" d="M 119.395 126.29 C 117.889 126.29 116.665 125.066 116.665 123.561 C 116.665 122.056 117.889 120.83 119.395 120.83 C 120.899 120.83 122.123 122.056 122.123 123.561 C 122.123 125.066 120.899 126.29 119.395 126.29 Z"/>
  <path fill="#A2BCFE" d="M 80.33 167.658 L 78.774 166.263 L 77.254 164.829 L 77.218 164.868 L 67.09 155.79 L 63.494 172.05 L 67.354 175.599 L 70.431 178.427 L 74.279 181.965 L 90.185 177.022 L 80.295 167.696 L 80.33 167.658 Z"/>
  <path fill="#A2BCFE" fill-rule="evenodd" d="M 189.86 207.65 C 187.78 207.65 185.78 206.82 184.31 205.35 C 182.84 203.88 182.01 201.88 182.01 199.8 C 182.01 197.72 182.84 195.72 184.31 194.25 C 185.78 192.78 187.78 191.96 189.86 191.96 C 191.94 191.96 193.94 192.78 195.41 194.25 C 196.88 195.72 197.71 197.72 197.71 199.8 C 197.71 201.88 196.88 203.88 195.41 205.35 C 193.94 206.82 191.94 207.65 189.86 207.65 Z M 189.86 206.65 C 188.04 206.65 186.3 205.93 185.02 204.64 C 183.73 203.36 183.01 201.62 183.01 199.8 C 183.01 197.99 183.73 196.24 185.02 194.96 C 186.3 193.68 188.04 192.96 189.86 192.96 C 191.68 192.96 193.42 193.68 194.7 194.96 C 195.99 196.24 196.71 197.99 196.71 199.8 C 196.71 201.62 195.99 203.36 194.7 204.64 C 193.42 205.93 191.68 206.65 189.86 206.65 Z"/>
  <path fill="#EAB305" d="M 189.86 205.061 C 186.961 205.061 184.602 202.702 184.602 199.803 C 184.602 196.905 186.961 194.545 189.86 194.545 C 192.759 194.545 195.118 196.905 195.118 199.803 C 195.118 202.702 192.759 205.061 189.86 205.061 Z"/>
  <path fill="#A2BCFE" fill-rule="evenodd" d="M 167.92 207.65 C 165.84 207.65 163.84 206.82 162.37 205.35 C 160.9 203.88 160.07 201.88 160.07 199.8 C 160.07 197.72 160.9 195.72 162.37 194.25 C 163.84 192.78 165.84 191.96 167.92 191.96 C 170 191.96 172 192.78 173.47 194.25 C 174.94 195.72 175.76 197.72 175.76 199.8 C 175.76 201.88 174.94 203.88 173.47 205.35 C 172 206.82 170 207.65 167.92 207.65 Z M 167.92 206.65 C 166.1 206.65 164.36 205.93 163.08 204.64 C 161.79 203.36 161.07 201.62 161.07 199.8 C 161.07 197.99 161.79 196.24 163.08 194.96 C 164.36 193.68 166.1 192.96 167.92 192.96 C 169.73 192.96 171.48 193.68 172.76 194.96 C 174.04 196.24 174.76 197.99 174.76 199.8 C 174.76 201.62 174.04 203.36 172.76 204.64 C 171.48 205.93 169.73 206.65 167.92 206.65 Z"/>
  <path fill="#FB7C38" d="M 167.917 205.061 C 165.018 205.061 162.659 202.702 162.659 199.803 C 162.659 196.905 165.018 194.545 167.917 194.545 C 170.816 194.545 173.175 196.905 173.175 199.803 C 173.175 202.702 170.816 205.061 167.917 205.061 Z"/>
  <path fill="#A2BCFE" fill-rule="evenodd" d="M 145.97 207.65 C 143.89 207.65 141.9 206.82 140.43 205.35 C 138.95 203.88 138.13 201.88 138.13 199.8 C 138.13 197.72 138.95 195.72 140.43 194.25 C 141.9 192.78 143.89 191.96 145.97 191.96 C 148.05 191.96 150.05 192.78 151.52 194.25 C 152.99 195.72 153.82 197.72 153.82 199.8 C 153.82 201.88 152.99 203.88 151.52 205.35 C 150.05 206.82 148.06 207.65 145.97 207.65 Z M 145.97 206.65 C 144.16 206.65 142.42 205.93 141.13 204.64 C 139.85 203.36 139.13 201.62 139.13 199.8 C 139.13 197.99 139.85 196.24 141.13 194.96 C 142.42 193.68 144.16 192.96 145.97 192.96 C 147.79 192.96 149.53 193.68 150.82 194.96 C 152.1 196.24 152.82 197.99 152.82 199.8 C 152.82 201.62 152.1 203.36 150.82 204.64 C 149.53 205.93 147.79 206.65 145.97 206.65 Z"/>
  <path fill="#2B898F" d="M 145.975 205.061 C 143.075 205.061 140.717 202.702 140.717 199.803 C 140.717 196.905 143.075 194.545 145.975 194.545 C 148.872 194.545 151.232 196.905 151.232 199.803 C 151.232 202.702 148.873 205.061 145.975 205.061 Z"/>
  <circle fill="#A2BCFE" cx="0" cy="0" r="1" transform="matrix(13.551,0,0,13.551,188.815,62.4)" vector-effect="non-scaling-stroke"/>
  <circle fill="#EAB305" cx="0" cy="0" r="1" transform="matrix(7.348,0,0,7.348,188.815,62.4)" vector-effect="non-scaling-stroke"/>
  <path fill="#F2F2F2" fill-rule="evenodd" d="M 179.9 62.4 C 179.9 60.04 180.84 57.77 182.51 56.1 C 184.18 54.43 186.45 53.49 188.82 53.49 C 191.18 53.49 193.45 54.43 195.12 56.1 C 196.79 57.77 197.73 60.04 197.73 62.4 C 197.73 64.76 196.79 67.03 195.12 68.7 C 193.45 70.38 191.18 71.31 188.82 71.31 C 186.45 71.31 184.18 70.38 182.51 68.7 C 180.84 67.03 179.9 64.76 179.9 62.4 Z M 183.04 62.4 C 183.04 60.87 183.64 59.4 184.73 58.31 C 185.81 57.23 187.28 56.62 188.82 56.62 C 190.35 56.62 191.82 57.23 192.9 58.31 C 193.99 59.4 194.6 60.87 194.6 62.4 C 194.6 63.93 193.99 65.4 192.9 66.49 C 191.82 67.57 190.35 68.18 188.82 68.18 C 187.28 68.18 185.81 67.57 184.73 66.49 C 183.64 65.4 183.04 63.93 183.04 62.4 Z"/>
  <path fill="#EAB305" d="M 187.248 62.4 C 185.849 74.011 184.449 85.623 183.05 97.234 C 183.138 96.501 183.837 95.912 182.867 96.86 C 182.009 97.698 181.15 98.537 180.293 99.375 C 177.571 102.033 174.85 104.691 172.129 107.349 C 167.906 111.473 163.684 115.598 159.461 119.722 C 158.013 121.136 160.231 123.351 161.678 121.939 C 165.9 117.814 170.123 113.689 174.345 109.565 C 177.066 106.907 179.788 104.249 182.509 101.591 C 183.579 100.546 185.973 98.984 186.17 97.356 C 187.574 85.704 188.979 74.052 190.383 62.4 C 190.624 60.396 187.487 60.42 187.248 62.4 L 187.248 62.4 Z"/>
  <path fill="#EAB305" d="M 163.818 117.988 C 164.967 119.273 164.856 121.265 163.571 122.414 L 162.792 123.11 C 161.507 124.26 159.515 124.148 158.366 122.862 C 157.217 121.577 157.329 119.585 158.614 118.436 L 159.393 117.741 C 160.678 116.592 162.67 116.703 163.818 117.988 L 163.818 117.988 Z"/>
 </g>
 <g opacity=".4">
  <linearGradient id="_lgradient_159" x1=".517" x2=".517" y1="0" y2="1">
   <stop offset="0%" style="stop-color:rgb(255,255,255)"/>
   <stop offset="12.5%" stop-opacity=".098" style="stop-color:rgb(255,255,255)"/>
   <stop offset="92.5%" stop-opacity=".098" style="stop-color:rgb(0,0,0)"/>
   <stop offset="100%" stop-opacity=".498" style="stop-color:rgb(0,0,0)"/>
  </linearGradient>
  <path fill="none" stroke="url(#_lgradient_159)" stroke-linecap="round" stroke-linejoin="round" stroke-width="4.077" d="M 165.685 11.947 C 239.74 11.947 250.324 22.504 250.324 96.491 L 250.324 155.742 C 250.324 229.728 239.74 240.285 165.685 240.285 L 90.315 240.285 C 16.26 240.285 5.676 229.728 5.676 155.742 L 5.676 96.491 C 5.676 22.504 16.26 11.947 90.315 11.947 L 165.685 11.947 Z" vector-effect="non-scaling-stroke"/>
 </g>
</svg>
